Origami/32x32/apps/putty.svg

<svg width="32" height="32" version="1.1" viewBox="0 0 32 32" xmlns="http://www.w3.org/2000/svg">
 <rect transform="matrix(0,-1,-1,0,0,0)" x="-22" y="-26" width="17" height="13" rx="1" ry="1" style="opacity:.2"/>
 <rect transform="matrix(0,-1,-1,0,0,0)" x="-21" y="-26" width="17" height="13" rx="1" ry="1" style="fill:#8e8e8e"/>
 <rect transform="matrix(0,-1,-1,0,0,0)" x="-20" y="-30" width="17" height="21" rx="1" ry="1" style="opacity:.2"/>
 <rect transform="matrix(0,-1,-1,0,0,0)" x="-19" y="-30" width="17" height="21" rx="1" ry="1" style="fill:#4f4f4f"/>
 <rect transform="matrix(0,-1,-1,0,0,0)" x="-17" y="-28" width="13" height="17" rx="0" ry="0" style="fill:#266ad7"/>
 <rect transform="matrix(0,-1,-1,0,0,0)" x="-31" y="-19" width="17" height="13" rx="1" ry="1" style="opacity:.2"/>
 <rect transform="matrix(0,-1,-1,0,0,0)" x="-30" y="-19" width="17" height="13" rx="1" ry="1" style="fill:#8e8e8e"/>
 <rect transform="matrix(0,-1,-1,0,0,0)" x="-29" y="-23" width="17" height="21" rx="1" ry="1" style="opacity:.2"/>
 <rect transform="matrix(0,-1,-1,0,0,0)" x="-28" y="-23" width="17" height="21" rx="1" ry="1" style="fill:#4f4f4f"/>
 <rect transform="matrix(0,-1,-1,0,0,0)" x="-26" y="-21" width="13" height="17" rx="0" ry="0" style="fill:#ffbe47"/>
 <path d="m3 11c-0.554 0-1 0.446-1 1v1c0-0.554 0.446-1 1-1h19c0.554 0 1 0.446 1 1v-1c0-0.554-0.446-1-1-1h-19z" style="fill:#ffffff;opacity:.1"/>
 <path d="m10 2c-0.554 0-1 0.446-1 1v1c0-0.554 0.446-1 1-1h19c0.554 0 1 0.446 1 1v-1c0-0.554-0.446-1-1-1h-19z" style="fill:#ffffff;opacity:.1"/>
</svg>

<svg xmlns="http://www.w3.org/2000/svg" width="32" height="32" version="1.1" viewBox="0 0 32 32">
 <rect style="opacity:0.2" width="17" height="13" x="-22" y="-26" rx="1" ry="1" transform="matrix(0,-1,-1,0,0,0)"/>
 <rect style="fill:#8e8e8e" width="17" height="13" x="-21" y="-26" rx="1" ry="1" transform="matrix(0,-1,-1,0,0,0)"/>
 <rect style="opacity:0.2" width="17" height="21" x="-20" y="-30" rx="1" ry="1" transform="matrix(0,-1,-1,0,0,0)"/>
 <rect style="fill:#4f4f4f" width="17" height="21" x="-19" y="-30" rx="1" ry="1" transform="matrix(0,-1,-1,0,0,0)"/>
 <rect style="fill:#266ad7" width="13" height="17" x="-17" y="-28" rx="0" ry="0" transform="matrix(0,-1,-1,0,0,0)"/>
 <rect style="opacity:0.2" width="17" height="13" x="-31" y="-19" rx="1" ry="1" transform="matrix(0,-1,-1,0,0,0)"/>
 <rect style="fill:#8e8e8e" width="17" height="13" x="-30" y="-19" rx="1" ry="1" transform="matrix(0,-1,-1,0,0,0)"/>
 <rect style="opacity:0.2" width="17" height="21" x="-29" y="-23" rx="1" ry="1" transform="matrix(0,-1,-1,0,0,0)"/>
 <rect style="fill:#4f4f4f" width="17" height="21" x="-28" y="-23" rx="1" ry="1" transform="matrix(0,-1,-1,0,0,0)"/>
 <rect style="fill:#ffbe47" width="13" height="17" x="-26" y="-21" rx="0" ry="0" transform="matrix(0,-1,-1,0,0,0)"/>
 <path style="fill:#ffffff;opacity:0.1" d="M 3 11 C 2.446 11 2 11.446 2 12 L 2 13 C 2 12.446 2.446 12 3 12 L 22 12 C 22.554 12 23 12.446 23 13 L 23 12 C 23 11.446 22.554 11 22 11 L 3 11 z"/>
 <path style="fill:#ffffff;opacity:0.1" d="M 10 2 C 9.446 2 9 2.446 9 3 L 9 4 C 9 3.446 9.446 3 10 3 L 29 3 C 29.554 3 30 3.446 30 4 L 30 3 C 30 2.446 29.554 2 29 2 L 10 2 z"/>
</svg>
